icons/inbox-arrow-up.svg

<svg xmlns="http://www.w3.org/2000/svg" width="24" height="24" viewBox="0 0 24 24">
  <path d="M6,16 L6.11662113,16.0067277 C6.61395981,16.0644928 7,16.4871642 7,17 C7,18.5976809 8.24891996,19.9036609 9.82372721,19.9949073 L10,20 L14,20 L14.1762728,19.9949073 C15.6927538,19.9070404 16.9070404,18.6927538 16.9949073,17.1762728 L17,17 L17.0067277,16.8833789 C17.0600494,16.424297 17.424297,16.0600494 17.8833789,16.0067277 L18,16 L22,16 L22,20 C22,21.1045695 21.1045695,22 20,22 L4,22 C2.8954305,22 2,21.1045695 2,20 L2,16 L6,16 Z M20,2 C21.1045695,2 22,2.8954305 22,4 L22,14 L18,14 L17.8237272,14.0050927 C16.24892,14.0963391 15,15.4023191 15,17 C15,17.5128358 14.6139598,17.9355072 14.1166211,17.9932723 L14,18 L10,18 L9.88337887,17.9932723 C9.42429701,17.9399506 9.06004937,17.575703 9.00672773,17.1166211 L9,17 L8.99490731,16.8237272 C8.90704038,15.3072462 7.69275384,14.0929596 6.17627279,14.0050927 L6,14 L2,14 L2,4 C2,2.8954305 2.8954305,2 4,2 L20,2 Z M12,5 L11.980824,5.00018018 L11.9409686,5.0017331 C11.9308872,5.00232561 11.9208131,5.00307004 11.909968,5.00399798 L11.909968,5.00399798 L11.8515331,5.0110178 C11.834051,5.01362808 11.8166247,5.01670217 11.7992059,5.02016515 C11.7772539,5.0246398 11.7555635,5.02983363 11.734007,5.03584514 C11.7185367,5.04009773 11.7031487,5.04472872 11.6882636,5.04954668 C11.6682023,5.05612249 11.6484208,5.06331574 11.628664,5.07122549 L11.628664,5.07122549 L11.5769009,5.09365378 C11.5561086,5.10337664 11.5357061,5.11379392 11.5159379,5.12467117 L11.5159379,5.12467117 L11.4793398,5.14606743 C11.453725,5.1617187 11.4288693,5.17849009 11.4046934,5.19633458 L11.4046934,5.19633458 L11.38,5.215 L11.37,5.224 L11.2928932,5.29289322 L8.29289322,8.29289322 L8.20970461,8.38710056 C7.90467972,8.77939176 7.93240926,9.34662282 8.29289322,9.70710678 C8.68341751,10.0976311 9.31658249,10.0976311 9.70710678,9.70710678 L9.70710678,9.70710678 L11,8.415 L11,12 L11.0067277,12.1166211 C11.0644928,12.6139598 11.4871642,13 12,13 C12.5522847,13 13,12.5522847 13,12 L13,12 L13,8.415 L14.2928932,9.70710678 L14.3871006,9.79029539 C14.7793918,10.0953203 15.3466228,10.0675907 15.7071068,9.70710678 C16.0976311,9.31658249 16.0976311,8.68341751 15.7071068,8.29289322 L15.7071068,8.29289322 L12.7071068,5.29289322 L12.625449,5.21968877 C12.6225624,5.2173721 12.6196628,5.21507113 12.6128994,5.20970461 C12.6070733,5.20517454 12.6012086,5.20071786 12.5951593,5.19631351 C12.5711307,5.17849009 12.546275,5.1617187 12.5207088,5.14599545 C12.5086131,5.13860692 12.4963944,5.13149883 12.484277,5.12487577 C12.4642939,5.11379392 12.4438914,5.10337664 12.4232215,5.09367336 L12.4232215,5.09367336 L12.3710585,5.07110396 C12.3515792,5.06331574 12.3317977,5.05612249 12.3121425,5.04973809 C12.2968513,5.04472872 12.2814633,5.04009773 12.2658396,5.03572097 C12.2444365,5.02983363 12.2227461,5.0246398 12.2007258,5.02024007 C12.1833753,5.01670217 12.165949,5.01362808 12.1489612,5.01101934 L12.1489612,5.01101934 L12.081,5.003 L12.03,5.001 L12.019,5.001 L12,5 L12,5 Z"/>
</svg>

<svg xmlns="http://www.w3.org/2000/svg" viewBox="0 0 24 24">
  <path d="M6 16h.12A1 1 0 0 1 7 17a3 3 0 0 0 2.82 3h4.36a3 3 0 0 0 2.81-2.82L17 17v-.12a1 1 0 0 1 .88-.87L18 16h4v4a2 2 0 0 1-2 2H4a2 2 0 0 1-2-2v-4h4zM20 2a2 2 0 0 1 2 2v10h-4.18A3 3 0 0 0 15 17a1 1 0 0 1-.88 1H9.88a1 1 0 0 1-.87-.88L9 17v-.18a3 3 0 0 0-2.82-2.81L6 14H2V4c0-1.1.9-2 2-2h16zm-8 3h-.09l-.06.01a1.1 1.1 0 0 0-.22.06l-.05.02-.06.03-.04.03-.08.05-.02.01-.01.01-.08.07-3 3-.08.1a1 1 0 0 0 1.5 1.32L11 8.4v3.71a1 1 0 0 0 2-.12V8.41l1.3 1.3.09.08a1 1 0 0 0 1.32-1.5l-3-3-.08-.07a3.01 3.01 0 0 0-.15-.1 1.02 1.02 0 0 0-.06-.03l-.05-.02a.95.95 0 0 0-.22-.06h-.13L12 5z"/>
</svg>
